X: 17545
T: Hillswick Wedding
R: reel
M: 4/4
K: Dmajor
|:fe|d2 A2 f2 A2|BG B2 d2 cB|A2 d2 f2 a2|^GBed cAfe|
d2 A2 f2 A2|BG B2 d2 cB|A2 a2 fdce|d4 d2:|
|:fg|a2 A2 f2 A2|BG B2 d2 cB|A2 d2 f2 a2|aAce g2 fg|
a2 A2 f2 A2|BG B2 d2 cB|A2 a2 fdce|d4 d2 fe|
d2 A2 f2 A2|BG B2 d2 cB|A2 d2 f2 a2|^GBed cAfe|
d2 A2 f2 A2|BG B2 d2 cB|A2 a2 fdce|d4 d2||

